X: 723
T: The linen cap
C: anon.
O: Ireland
B: Francis O'Neill: "The Dance Music of Ireland" (1907) no. 723
R: Reel
Z: Transcribed by Frank Nordberg - http://www.musicaviva.com
F: http://www.musicaviva.com/abc/tunes/ireland/oneill-1001/oneill-1001-072
3.abc
M: C|
L: 1/8
K: A
g|a2(ed) cdec|Bcde fBBg|a2(ed) cdec|dfed cAAg|a2(ed)cdec|Bcde fefg|agae f
aec|dfed cA A||
B|cAEA cdec|Bcde fBBd|cAEA cdec|dfed cAAB|cAEA cdec|Bcde fefg|agae faec|d
fed cA A|]
W:
W:
W: From Musica Viva - http://www.musicaviva.com
W: the Internet center for free sheet music downloads.


